images/item-area-icon3.svg

<svg width="32" height="40" viewBox="0 0 32 40" fill="none" xmlns="http://www.w3.org/2000/svg">
<path fill-rule="evenodd" clip-rule="evenodd" d="M2.66663 9.66669C3.21891 9.66669 3.66663 10.1144 3.66663 10.6667V37.3334C3.66663 37.8856 3.21891 38.3334 2.66663 38.3334C2.11434 38.3334 1.66663 37.8856 1.66663 37.3334V10.6667C1.66663 10.1144 2.11434 9.66669 2.66663 9.66669Z" fill="#2667FF"/>
<path fill-rule="evenodd" clip-rule="evenodd" d="M1.66663 24C1.66663 23.4477 2.11434 23 2.66663 23H29.3333C29.8856 23 30.3333 23.4477 30.3333 24C30.3333 24.5523 29.8856 25 29.3333 25H2.66663C2.11434 25 1.66663 24.5523 1.66663 24Z" fill="#2667FF"/>
<path fill-rule="evenodd" clip-rule="evenodd" d="M8 12.3334C8.55228 12.3334 9 12.7811 9 13.3334V18.6667C9 19.219 8.55228 19.6667 8 19.6667C7.44772 19.6667 7 19.219 7 18.6667V13.3334C7 12.7811 7.44772 12.3334 8 12.3334Z" fill="#2667FF"/>
<path fill-rule="evenodd" clip-rule="evenodd" d="M12 9.66669C12.5523 9.66669 13 10.1144 13 10.6667V18.6667C13 19.219 12.5523 19.6667 12 19.6667C11.4477 19.6667 11 19.219 11 18.6667V10.6667C11 10.1144 11.4477 9.66669 12 9.66669Z" fill="#2667FF"/>
<path fill-rule="evenodd" clip-rule="evenodd" d="M16 13.6667C16.5523 13.6667 17 14.1144 17 14.6667V18.6667C17 19.219 16.5523 19.6667 16 19.6667C15.4477 19.6667 15 19.219 15 18.6667V14.6667C15 14.1144 15.4477 13.6667 16 13.6667Z" fill="#2667FF"/>
<path fill-rule="evenodd" clip-rule="evenodd" d="M28 28.3334C28.5523 28.3334 29 28.7811 29 29.3334V34.6667C29 35.219 28.5523 35.6667 28 35.6667C27.4477 35.6667 27 35.219 27 34.6667V29.3334C27 28.7811 27.4477 28.3334 28 28.3334Z" fill="#2667FF"/>
<path fill-rule="evenodd" clip-rule="evenodd" d="M24 28.3334C24.5523 28.3334 25 28.7811 25 29.3334V37.3334C25 37.8857 24.5523 38.3334 24 38.3334C23.4477 38.3334 23 37.8857 23 37.3334V29.3334C23 28.7811 23.4477 28.3334 24 28.3334Z" fill="#2667FF"/>
<path fill-rule="evenodd" clip-rule="evenodd" d="M20 28.3334C20.5523 28.3334 21 28.7811 21 29.3334V33.3334C21 33.8857 20.5523 34.3334 20 34.3334C19.4477 34.3334 19 33.8857 19 33.3334V29.3334C19 28.7811 19.4477 28.3334 20 28.3334Z" fill="#2667FF"/>
</svg>

<svg xmlns="http://www.w3.org/2000/svg" width="32" height="40" fill="none"><path fill="#2667FF" fill-rule="evenodd" d="M2.667 9.667a1 1 0 0 1 1 1v26.666a1 1 0 0 1-2 0V10.667a1 1 0 0 1 1-1Z" clip-rule="evenodd"/><path fill="#2667FF" fill-rule="evenodd" d="M1.667 24a1 1 0 0 1 1-1h26.666a1 1 0 1 1 0 2H2.667a1 1 0 0 1-1-1ZM8 12.333a1 1 0 0 1 1 1v5.334a1 1 0 1 1-2 0v-5.334a1 1 0 0 1 1-1ZM12 9.667a1 1 0 0 1 1 1v8a1 1 0 1 1-2 0v-8a1 1 0 0 1 1-1ZM16 13.667a1 1 0 0 1 1 1v4a1 1 0 1 1-2 0v-4a1 1 0 0 1 1-1ZM28 28.333a1 1 0 0 1 1 1v5.334a1 1 0 1 1-2 0v-5.334a1 1 0 0 1 1-1ZM24 28.333a1 1 0 0 1 1 1v8a1 1 0 1 1-2 0v-8a1 1 0 0 1 1-1ZM20 28.333a1 1 0 0 1 1 1v4a1 1 0 1 1-2 0v-4a1 1 0 0 1 1-1Z" clip-rule="evenodd"/></svg>
